!!!COM: Palestrina, Giovanni Perluigi da
!!!OPR: Missa Papae Marcelli
!!!OMD: Credo
!!!OTL: First Section
**kern	**kern	**kern	**kern	**kern	**kern
*Ibass	*Ibass	*Itenor	*Itenor	*Icalto	*Icant
!Bassus 2	!Bassus 1	!Tenor 2	!Tenor 1	!Altus	!Cantus
*clefF4	*clefF4	*clefGv2	*clefGv2	*clefG2	*clefG2
*k[]	*k[]	*k[]	*k[]	*k[]	*k[]
*C:ion	*C:ion	*C:ion	*C:ion	*C:ion	*C:ion
*M4/2	*M4/2	*M4/2	*M4/2	*M4/2	*M4/2
=1	=1	=1	=1	=1	=1
0r	0G	0r	0d	0g	0b
=2	=2	=2	=2	=2	=2
0r	1G	0r	1d	1g	1b
.	1G	.	1d	1g	1b
=3	=3	=3	=3	=3	=3
0r	1.c	0r	1.e	1.g	4cc
.	.	.	.	.	4dd
.	.	.	.	.	4ee
.	.	.	.	.	4ff
.	.	.	.	.	2gg
.	2B	.	2d	2g	2gg
=4	=4	=4	=4	=4	=4
0r	0A	0r	0c	2.a	2ff
.	.	.	.	.	1ee
.	.	.	.	8g	.
.	.	.	.	8f	.
.	.	.	.	2e	.
.	.	.	.	2f#	4dd
.	.	.	.	.	4cc
=5	=5	=5	=5	=5	=5
2r	1G	2r	2d	2g	1b
2G	.	2d	2g	2b	.
2G	1r	2d	2g	2b	1r
2G	.	2d	2g	2b	.
=6	=6	=6	=6	=6	=6
1c	0r	1e	2.g	2.cc	0r
.	.	.	4g	4b	.
2c	.	2c	2e	2a	.
2B	.	2d	[2d	[2g	.
=7	=7	=7	=7	=7	=7
1A	0r	2e	4d]	2g]	0r
.	.	.	4c	.	.
.	.	4d	1c	2f#	.
.	.	4c	.	.	.
1G	.	1d	.	1g	.
.	.	.	2B	.	.
=8	=8	=8	=8	=8	=8
2C	2r	2c	1c	2r	2r
1C	1c	1e	.	1g	1cc
.	.	.	1r	.	.
2C	2c	2e	.	2g	2cc
=9	=9	=9	=9	=9	=9
2G	2B	2d	0r	2g	2dd
2G	2B	2d	.	2g	2dd
1C	1c	1g	.	1e	1ee
=10	=10	=10	=10	=10	=10
1.F	2A	2.f	0r	1.a	1.ff
.	2F	.	.	.	.
.	.	8e	.	.	.
.	.	8d	.	.	.
.	2.A	2c	.	.	.
2F	.	2d	.	2a	2ff
.	4B	.	.	.	.
=11	=11	=11	=11	=11	=11
2C	2c	1e	2r	1g	2ee
1c	4C	.	1g	.	1ee
.	4D	.	.	.	.
.	4E	1r	.	1r	.
.	4F	.	.	.	.
2B	2G	.	2g	.	2dd
=12	=12	=12	=12	=12	=12
2.c	1C	0r	2g	0r	2.ee
.	.	.	2e	.	.
4B	.	.	.	.	4dd
2A	1r	.	2f#	.	2cc
2G	.	.	[2g	.	2b
=13	=13	=13	=13	=13	=13
2d	1r	1r	2g]	1r	2a
2d	.	.	2f#	.	2a
1G	2r	2r	1g	2r	2b
.	[2G	[2B	.	[2g	[2dd
=14	=14	=14	=14	=14	=14
0r	2G]	2B]	0r	2g]	2dd]
.	2G	2B	.	2g	2dd
.	1G	1B	.	1g	1dd
=15	=15	=15	=15	=15	=15
0r	2E	2B	0r	2g	1ee
.	1A	1c	.	1e	.
.	.	.	.	.	2cc
.	2A	2c	.	2f#	2cc
=16	=16	=16	=16	=16	=16
2r	1G	2d	2r	2.g	2b
1G	.	1d	1g	.	1b
.	.	.	.	8f	.
.	.	.	.	8e	.
.	1r	.	.	4d	.
.	.	.	.	4c	.
2G	.	2d	2g	4B	2b
.	.	.	.	4A	.
=17	=17	=17	=17	=17	=17
1G	0r	1d	1g	1B	1b
2E	.	2e	2g	1r	2b
[2A	.	[2c	[2e	.	[2cc
=18	=18	=18	=18	=18	=18
2A]	0r	2c]	2e]	0r	2cc]
2A	.	2c	2f#	.	2cc
2G	.	2d	2g	.	2b
[2F	.	[2A	[2a	.	[2cc
=19	=19	=19	=19	=19	=19
2F]	0r	4A]	2a]	0r	2cc]
.	.	4B	.	.	.
2E	.	1c	2g	.	2cc
1D	.	.	1f	.	1dd
.	.	2B	.	.	.
=20	=20	=20	=20	=20	=20
1C	2r	1c	2e	2r	1ee
.	2.c	.	2.e	2.g	.
1r	.	1r	.	.	1r
.	4c	.	4e	4g	.
.	2B-	.	2d	2g	.
=21	=21	=21	=21	=21	=21
0r	2A	0r	2c	2f	0r
.	2G	.	2B	2e	.
.	2.A	.	2.c	2f	.
.	.	.	.	2e	.
.	4G	.	4B-	.	.
=22	=22	=22	=22	=22	=22
1r	2F	1r	2A	2d	1r
.	2E	.	2G	2c#	.
2r	2D	2r	1A	2d	2r
[2D	[2d	[2f	.	[2a	[2dd
=23	=23	=23	=23	=23	=23
2D]	2d]	2f]	0r	2a]	2dd]
2D	2d	2f	.	2a	2dd
2D	2d	2f	.	2a	2ff
2D	2d	2f	.	2a	2ff
=24	=24	=24	=24	=24	=24
1F	2.A	2c	0r	1a	1ff
.	.	2d	.	.	.
.	4B	.	.	.	.
2C	1c	2e	.	2g	2ee
[2c	.	[2g	.	[2cc	[2ee
=25	=25	=25	=25	=25	=25
2c]	0r	2g]	0r	2cc]	2ee]
2G	.	2g	.	2b	2dd
2A	.	2e	.	2a	2cc
2A	.	2c	.	2f	2cc
=26	=26	=26	=26	=26	=26
2G	0r	2d	0r	2g	2b
1F	.	1f	.	1a	1cc
2G	.	2d	.	[2g	2b
=27	=27	=27	=27	=27	=27
1D	0r	0d	0r	2g]	1a
.	.	.	.	2f#	.
1G	.	.	.	1g	1b
=28	=28	=28	=28	=28	=28
0r	1G	0r	1B	1d	2r
.	.	.	.	.	2g
.	2F	.	2c	2f	2a
.	2D	.	2d	2f	2a
=29	=29	=29	=29	=29	=29
1r	1A	1r	1c	1e	1cc
2r	1G	2r	2d	2g	1b
2G	.	2B	2d	2g	.
=30	=30	=30	=30	=30	=30
2F	0r	2c	2f	2a	0r
2D	.	2d	2f	2a	.
2A	.	2c	2e	2cc	.
2A	.	2c	2f#	2cc	.
=31	=31	=31	=31	=31	=31
1G	2r	2d	1g	2b	2r
.	1G	1d	.	1g	1b
1r	.	.	1r	.	.
.	2E	2e	.	2g	2b
=32	=32	=32	=32	=32	=32
1r	1A	1c	1r	2e	1cc
.	.	.	.	2f#	.
2r	1G	2d	2r	1g	2b
[2G	.	[2g	[2d	.	[2b
=33	=33	=33	=33	=33	=33
2G]	0r	2g]	2d]	0r	2b]
2E	.	2g	2e	.	2b
1A	.	2e	1c	.	1cc
.	.	2f#	.	.	.
=34	=34	=34	=34	=34	=34
1G	2r	2g	1d	0r	2b
.	2G	2g	.	.	2b
1r	2A	2f	1r	.	2cc
.	2B	2d	.	.	2dd
=35	=35	=35	=35	=35	=35
1r	1c	1e	1r	0r	2.g
.	.	.	.	.	4a
2r	1G	1d	2r	.	4b
.	.	.	.	.	4cc
2G	.	.	2g	.	4dd
.	.	.	.	.	4b
=36	=36	=36	=36	=36	=36
2A	0r	2r	2f	2r	2cc
2B	.	2G	2d	2g	2.dd
1c	.	2c	2e	2g	.
.	.	.	.	.	4cc
.	.	2e	2c	2g	[2cc
=37	=37	=37	=37	=37	=37
0G	0r	4d	0d	0g	2cc]
.	.	4G	.	.	.
.	.	2.g	.	.	4b
.	.	.	.	.	4a
.	.	.	.	.	1b
.	.	4f	.	.	.
.	.	2d	.	.	.
=38	=38	=38	=38	=38	=38
0C	1r	0e	1c	1g	1cc
.	[1c	.	2r	2r	2r
.	.	.	[2g	[2cc	[2ee
=39	=39	=39	=39	=39	=39
0r	2c]	0r	2g]	2cc]	2ee]
.	2G	.	2g	2b	2dd
.	2A	.	2e	2a	2cc
.	2E	.	2e	2g	2b
=40	=40	=40	=40	=40	=40
1r	1A	1r	1c	2e	1cc
.	.	.	.	2f#	.
2r	1G	2r	2d	1g	2b
[2C	.	[2g	[2e	.	[2cc
=41	=41	=41	=41	=41	=41
2C]	0r	2g]	2e]	0r	2cc]
2G	.	2g	2d	.	2b
2A	.	2e	2c	.	2a
2E	.	2e	2B	.	2g
=42	=42	=42	=42	=42	=42
1F	0r	1c	4A	0r	1a
.	.	.	4B	.	.
.	.	.	4c	.	.
.	.	.	4d	.	.
2C	.	1c	2e	.	2g
[2F	.	.	[2f	.	[2a
=43	=43	=43	=43	=43	=43
2F]	0r	0r	2f]	0r	2a]
2G	.	.	1e	.	2g
2A	.	.	.	.	1f
2B	.	.	2d	.	.
=44	=44	=44	=44	=44	=44
2c	2r	2r	2e	2r	2e
1c	1C	1e	1g	1cc	1ee
2c	2C	2e	2g	2cc	2ee
=45	=45	=45	=45	=45	=45
2c	2C	2e	2g	2cc	2ee
2c	2C	2e	2g	2g	2ee
1A	2.F	2f	[1f	1a	1cc
.	.	[2c	.	.	.
.	4G	.	.	.	.
=46	=46	=46	=46	=46	=46
1F	2A	2c]	2f]	1a	1ff
.	2F	2A	1a	.	.
1F	2.A	2.c	.	2f	1ff
.	.	.	2a	[2c	.
.	4B	4d	.	.	.
=47	=47	=47	=47	=47	=47
0C	1c	1e	1g	4c]	0ee
.	.	.	.	4d	.
.	.	.	.	4e	.
.	.	.	.	4f	.
.	2r	2r	2r	1g	.
.	2c	2g	2e	.	.
=48	=48	=48	=48	=48	=48
0r	2c	2g	2e	0r	0r
.	2c	2g	2e	.	.
.	2B	2g	2d	.	.
.	[2c	[2a	[2e	.	.
=49	=49	=49	=49	=49	=49
0r	4c]	4a]	4e]	0r	0r
.	4B	4g	4d	.	.
.	4B	1g	4d	.	.
.	8A	.	8c	.	.
.	8G	.	8B	.	.
.	2A	.	2c	.	.
.	2A	2f#	2c	.	.
=50	=50	=50	=50	=50	=50
2r	1G	1g	2d	2r	2r
2G	.	.	2g	2b	2dd
2G	1r	1r	2g	2b	2dd
2G	.	.	2g	2b	2dd
=51	=51	=51	=51	=51	=51
1d	0r	0r	1f#	1a	1dd
2G	.	.	2g	2b	2dd
[2c	.	.	[2g	2cc	[2ee
=52	=52	=52	=52	=52	=52
2c]	0r	0r	2g]	1a	2ee]
2d	.	.	2f	.	2.dd
1A	.	.	1e	1a	.
.	.	.	.	.	8cc
.	.	.	.	.	8b
.	.	.	.	.	2cc#
=53	=53	=53	=53	=53	=53
1D	2r	1f	1d	2r	1dd
.	2d	.	.	2a	.
1r	2.c	2.e	1r	2a	1r
.	.	.	.	2g	.
.	4B-	4d	.	.	.
=54	=54	=54	=54	=54	=54
0r	1A	1c	0r	2f	0r
.	.	.	.	2.e	.
.	2G	2B-	.	.	.
.	.	.	.	4d	.
.	2F	2A	.	[2d	.
=55	=55	=55	=55	=55	=55
1r	1E	1G	1r	2d]	1gg
.	.	.	.	2c#	.
2r	1D	1A	2r	2d	1ff
2d	.	.	[2a	2a	.
=56	=56	=56	=56	=56	=56
2.c	0r	2r	2a]	1cc	1ee
.	.	2e	2g	.	.
4B-	.	.	.	.	.
1A	.	2c	2f	1cc	2r
.	.	2A	[2e	.	2cc
=57	=57	=57	=57	=57	=57
2G	0r	4B-	4e]	2b-	1dd
.	.	4c	4d	.	.
2F	.	2d	1d	2.a	.
1E	.	1G	.	.	1ee
.	.	.	.	4g	.
.	.	.	2c#	[2g	.
=58	=58	=58	=58	=58	=58
0D	0r	1A	0d	2g]	0a
.	.	.	.	4f	.
.	.	.	.	4e	.
.	.	1r	.	1f#	.
=59	=59	=59	=59	=59	=59
1r	0G	0B	0d	1r	1r
1G	.	.	.	1g	1dd
=60	=60	=60	=60	=60	=60
1B	1G	1d	1G	1g	1dd
1c	1C	1c	1g	1e	1ee
=61	=61	=61	=61	=61	=61
1A	1F	1c	1f	1a	1.cc
1F	1F	1c	1f	1a	.
.	.	.	.	.	2dd
=62	=62	=62	=62	=62	=62
1G	0C	0c	1e	2g	1ee
.	.	.	.	2cc	.
2r	.	.	2r	1cc	2r
2c	.	.	2g	.	2ee
=63	=63	=63	=63	=63	=63
1c	0r	0r	2.e	2g	1ee
.	.	.	.	2a	.
.	.	.	4f	.	.
2G	.	.	2g	2b-	2dd
2A	.	.	2e	[2a	2cc#
=64	=64	=64	=64	=64	=64
1B-	0r	0r	1d	2a]	1dd
.	.	.	.	2g	.
1A	.	.	1e	1a	1cc#
=65	=65	=65	=65	=65	=65
0r	1.F	1.c	2r	1.a	1.ff
.	.	.	1A	.	.
.	2F	2c	2A	2a	2ff
=66	=66	=66	=66	=66	=66
0r	1C	2.e	1c	1g	1ee
.	.	4f	.	.	.
.	1G	2g	1B	2g	1dd
.	.	2G	.	[2g	.
=67	=67	=67	=67	=67	=67
0r	1D	1.A	1.d	2g]	2.dd
.	.	.	.	4f	.
.	.	.	.	4e	8cc
.	.	.	.	.	8b
.	1D	.	.	2f#	2a
.	.	2A	2d	2f#	2a
=68	=68	=68	=68	=68	=68
1r	1G	1G	1d	0g	1b
[1G	1r	1r	2.d	.	[1b
.	.	.	4c	.	.
=69	=69	=69	=69	=69	=69
2G]	0G	0d	2B	0g	2b]
2A	.	.	2A	.	2cc
1B	.	.	1G	.	1dd
=70	=70	=70	=70	=70	=70
1c	1C	1c	1g	2.e	1ee
.	.	.	.	4f	.
1c	1C	1e	[1g	2g	1cc
.	.	.	.	2a	.
=71	=71	=71	=71	=71	=71
1B	1G	1d	2g]	1b	1dd
.	.	.	2f	.	.
1c	1C	2e	1e	1g	[1cc
.	.	[2g	.	.	.
=72	=72	=72	=72	=72	=72
1d	0G	2g]	0d	0g	2cc]
.	.	4f	.	.	4b
.	.	4e	.	.	4a
1G	.	1d	.	.	1b
=73	=73	=73	=73	=73	=73
0G	0C	0e	0c	0g	0cc
*-	*-	*-	*-	*-	*-
!!!CDT: 1525/^1526/-1594/2/2
!!!OCY: Italia
!!!AGN: Mass (Free)
!!!AST: renaissance, vocal
!!!ASW: Chanson 1533 (Lupi or Cadéac)
!!!PWK: Masses, Book 2
!!!RNB: Cadence finals: G
!!!YOR: Le Opere Complete, v. 4, p. 167
!!!YOO: Rome, Italy: Fratelli Scalera
!!!END: 1992//
!!!EED: John Miller
!!!YEC: Copyright 2000, John Miller
!!!YEN: United States of America
!!!YEM: Rights to all derivative electronic formats reserved.
!!!YEM: Refer to licensing agreement for further details.
!!!YEM: This file must be accompanied by the licensing agreement.
!!!YEM: A copy of the licensing agreement may be found at http://www.music-cog.ohio-state.edu/HumdrumDatabases/Palestrina/license.txt
!!!EMD: converted to Humdrum by Bret Aarden
